images/3234822.svg

<?xml version="1.0" encoding="UTF-8"?>
<svg xmlns="http://www.w3.org/2000/svg" xmlns:xlink="http://www.w3.org/1999/xlink" width="300pt" height="300pt" viewBox="0 0 300 300" version="1.1">
<defs>
<g>
<symbol overflow="visible" id="glyph0-0">
<path style="stroke:none;" d="M 0.640625 2.296875 L 0.640625 -9.171875 L 7.140625 -9.171875 L 7.140625 2.296875 Z M 1.375 1.578125 L 6.421875 1.578125 L 6.421875 -8.4375 L 1.375 -8.4375 Z M 1.375 1.578125 "/>
</symbol>
<symbol overflow="visible" id="glyph0-1">
<path style="stroke:none;" d="M 1.28125 -9.484375 L 3 -9.484375 L 7.203125 -1.546875 L 7.203125 -9.484375 L 8.453125 -9.484375 L 8.453125 0 L 6.71875 0 L 2.515625 -7.921875 L 2.515625 0 L 1.28125 0 Z M 1.28125 -9.484375 "/>
</symbol>
<symbol overflow="visible" id="glyph0-2">
<path style="stroke:none;" d="M 5.125 -8.609375 C 4.1875 -8.609375 3.441406 -8.257812 2.890625 -7.5625 C 2.347656 -6.875 2.078125 -5.929688 2.078125 -4.734375 C 2.078125 -3.535156 2.347656 -2.585938 2.890625 -1.890625 C 3.441406 -1.203125 4.1875 -0.859375 5.125 -0.859375 C 6.050781 -0.859375 6.785156 -1.203125 7.328125 -1.890625 C 7.878906 -2.585938 8.15625 -3.535156 8.15625 -4.734375 C 8.15625 -5.929688 7.878906 -6.875 7.328125 -7.5625 C 6.785156 -8.257812 6.050781 -8.609375 5.125 -8.609375 Z M 5.125 -9.65625 C 6.445312 -9.65625 7.503906 -9.207031 8.296875 -8.3125 C 9.097656 -7.414062 9.5 -6.222656 9.5 -4.734375 C 9.5 -3.234375 9.097656 -2.035156 8.296875 -1.140625 C 7.503906 -0.253906 6.445312 0.1875 5.125 0.1875 C 3.789062 0.1875 2.722656 -0.253906 1.921875 -1.140625 C 1.128906 -2.035156 0.734375 -3.234375 0.734375 -4.734375 C 0.734375 -6.222656 1.128906 -7.414062 1.921875 -8.3125 C 2.722656 -9.207031 3.789062 -9.65625 5.125 -9.65625 Z M 5.125 -9.65625 "/>
</symbol>
</g>
</defs>
<g id="surface37497">
<rect x="0" y="0" width="300" height="300" style="fill:rgb(100%,100%,100%);fill-opacity:1;stroke:none;"/>
<path style="fill:none;stroke-width:1.2;stroke-linecap:butt;stroke-linejoin:miter;stroke:rgb(0%,0%,0%);stroke-opacity:1;stroke-miterlimit:10;" d="M 73.6875 223.648438 L 84.589844 209.957031 "/>
<path style="fill:none;stroke-width:1.2;stroke-linecap:butt;stroke-linejoin:miter;stroke:rgb(0%,0%,100%);stroke-opacity:1;stroke-miterlimit:10;" d="M 84.589844 209.957031 L 95.492188 196.265625 "/>
<path style="fill:none;stroke-width:1.2;stroke-linecap:butt;stroke-linejoin:miter;stroke:rgb(0%,0%,100%);stroke-opacity:1;stroke-miterlimit:10;" d="M 95.492188 196.265625 L 112.796875 198.859375 "/>
<path style="fill:none;stroke-width:1.2;stroke-linecap:butt;stroke-linejoin:miter;stroke:rgb(0%,0%,0%);stroke-opacity:1;stroke-miterlimit:10;" d="M 112.796875 198.859375 L 130.105469 201.457031 "/>
<path style="fill:none;stroke-width:1.2;stroke-linecap:butt;stroke-linejoin:miter;stroke:rgb(0%,0%,100%);stroke-opacity:1;stroke-miterlimit:10;" d="M 95.492188 196.265625 L 89.085938 179.976562 "/>
<path style="fill:none;stroke-width:1.2;stroke-linecap:butt;stroke-linejoin:miter;stroke:rgb(0%,0%,0%);stroke-opacity:1;stroke-miterlimit:10;" d="M 89.085938 179.976562 L 82.679688 163.691406 "/>
<path style=" stroke:none;fill-rule:nonzero;fill:rgb(100%,100%,100%);fill-opacity:1;" d="M 90.492188 188.265625 L 100.492188 188.265625 L 100.492188 204.265625 L 90.492188 204.265625 Z M 90.492188 188.265625 "/>
<g style="fill:rgb(0%,0%,100%);fill-opacity:1;">
  <use xlink:href="#glyph0-1" x="90.492188" y="200.641602"/>
</g>
<path style="fill:none;stroke-width:1.2;stroke-linecap:butt;stroke-linejoin:miter;stroke:rgb(0%,0%,0%);stroke-opacity:1;stroke-miterlimit:10;" d="M 82.679688 163.691406 L 65.371094 161.097656 "/>
<path style="fill:none;stroke-width:1.2;stroke-linecap:butt;stroke-linejoin:miter;stroke:rgb(0%,0%,100%);stroke-opacity:1;stroke-miterlimit:10;" d="M 65.371094 161.097656 L 48.0625 158.5 "/>
<path style="fill:none;stroke-width:1.2;stroke-linecap:butt;stroke-linejoin:miter;stroke:rgb(0%,0%,0%);stroke-opacity:1;stroke-miterlimit:10;" d="M 80.4375 155.027344 L 66.589844 152.949219 "/>
<path style="fill:none;stroke-width:1.2;stroke-linecap:butt;stroke-linejoin:miter;stroke:rgb(0%,0%,100%);stroke-opacity:1;stroke-miterlimit:10;" d="M 66.589844 152.949219 L 52.746094 150.875 "/>
<path style="fill:none;stroke-width:1.2;stroke-linecap:butt;stroke-linejoin:miter;stroke:rgb(0%,0%,0%);stroke-opacity:1;stroke-miterlimit:10;" d="M 104.480469 136.308594 L 82.679688 163.691406 "/>
<path style="fill:none;stroke-width:1.2;stroke-linecap:butt;stroke-linejoin:miter;stroke:rgb(0%,0%,100%);stroke-opacity:1;stroke-miterlimit:10;" d="M 48.0625 158.5 L 41.65625 142.214844 "/>
<path style="fill:none;stroke-width:1.2;stroke-linecap:butt;stroke-linejoin:miter;stroke:rgb(0%,0%,0%);stroke-opacity:1;stroke-miterlimit:10;" d="M 41.65625 142.214844 L 35.25 125.925781 "/>
<path style=" stroke:none;fill-rule:nonzero;fill:rgb(100%,100%,100%);fill-opacity:1;" d="M 43.0625 150.5 L 53.0625 150.5 L 53.0625 166.5 L 43.0625 166.5 Z M 43.0625 150.5 "/>
<g style="fill:rgb(0%,0%,100%);fill-opacity:1;">
  <use xlink:href="#glyph0-1" x="43.0625" y="162.875977"/>
</g>
<path style="fill:none;stroke-width:1.2;stroke-linecap:butt;stroke-linejoin:miter;stroke:rgb(0%,0%,0%);stroke-opacity:1;stroke-miterlimit:10;" d="M 35.25 125.925781 L 46.152344 112.234375 "/>
<path style="fill:none;stroke-width:1.2;stroke-linecap:butt;stroke-linejoin:miter;stroke:rgb(0%,0%,100%);stroke-opacity:1;stroke-miterlimit:10;" d="M 46.152344 112.234375 L 57.054688 98.542969 "/>
<path style="fill:none;stroke-width:1.2;stroke-linecap:butt;stroke-linejoin:miter;stroke:rgb(0%,0%,0%);stroke-opacity:1;stroke-miterlimit:10;" d="M 43.875 128.316406 L 52.59375 117.363281 "/>
<path style="fill:none;stroke-width:1.2;stroke-linecap:butt;stroke-linejoin:miter;stroke:rgb(0%,0%,100%);stroke-opacity:1;stroke-miterlimit:10;" d="M 52.59375 117.363281 L 61.316406 106.410156 "/>
<path style="fill:none;stroke-width:1.2;stroke-linecap:butt;stroke-linejoin:miter;stroke:rgb(0%,0%,100%);stroke-opacity:1;stroke-miterlimit:10;" d="M 57.054688 98.542969 L 74.363281 101.140625 "/>
<path style="fill:none;stroke-width:1.2;stroke-linecap:butt;stroke-linejoin:miter;stroke:rgb(0%,0%,0%);stroke-opacity:1;stroke-miterlimit:10;" d="M 74.363281 101.140625 L 91.667969 103.734375 "/>
<path style=" stroke:none;fill-rule:nonzero;fill:rgb(100%,100%,100%);fill-opacity:1;" d="M 52.054688 90.542969 L 62.054688 90.542969 L 62.054688 106.542969 L 52.054688 106.542969 Z M 52.054688 90.542969 "/>
<g style="fill:rgb(0%,0%,100%);fill-opacity:1;">
  <use xlink:href="#glyph0-1" x="52.054688" y="102.918945"/>
</g>
<path style="fill:none;stroke-width:1.2;stroke-linecap:butt;stroke-linejoin:miter;stroke:rgb(0%,0%,0%);stroke-opacity:1;stroke-miterlimit:10;" d="M 91.667969 103.734375 L 104.480469 136.308594 "/>
<path style="fill:none;stroke-width:1.2;stroke-linecap:butt;stroke-linejoin:miter;stroke:rgb(0%,0%,0%);stroke-opacity:1;stroke-miterlimit:10;" d="M 100.617188 103.976562 L 110.867188 130.035156 "/>
<path style="fill:none;stroke-width:1.2;stroke-linecap:butt;stroke-linejoin:miter;stroke:rgb(0%,0%,0%);stroke-opacity:1;stroke-miterlimit:10;" d="M 113.472656 76.351562 L 91.667969 103.734375 "/>
<path style="fill:none;stroke-width:1.2;stroke-linecap:butt;stroke-linejoin:miter;stroke:rgb(0%,0%,0%);stroke-opacity:1;stroke-miterlimit:10;" d="M 104.480469 136.308594 L 139.097656 141.5 "/>
<path style="fill:none;stroke-width:1.2;stroke-linecap:butt;stroke-linejoin:miter;stroke:rgb(0%,0%,0%);stroke-opacity:1;stroke-miterlimit:10;" d="M 139.097656 141.5 L 160.902344 114.117188 "/>
<path style="fill:none;stroke-width:1.2;stroke-linecap:butt;stroke-linejoin:miter;stroke:rgb(0%,0%,0%);stroke-opacity:1;stroke-miterlimit:10;" d="M 134.835938 133.632812 L 152.277344 111.726562 "/>
<path style="fill:none;stroke-width:1.2;stroke-linecap:butt;stroke-linejoin:miter;stroke:rgb(0%,0%,0%);stroke-opacity:1;stroke-miterlimit:10;" d="M 160.902344 114.117188 L 148.089844 81.542969 "/>
<path style="fill:none;stroke-width:1.2;stroke-linecap:butt;stroke-linejoin:miter;stroke:rgb(0%,0%,0%);stroke-opacity:1;stroke-miterlimit:10;" d="M 160.902344 114.117188 L 195.519531 119.308594 "/>
<path style="fill:none;stroke-width:1.2;stroke-linecap:butt;stroke-linejoin:miter;stroke:rgb(0%,0%,0%);stroke-opacity:1;stroke-miterlimit:10;" d="M 148.089844 81.542969 L 113.472656 76.351562 "/>
<path style="fill:none;stroke-width:1.2;stroke-linecap:butt;stroke-linejoin:miter;stroke:rgb(0%,0%,0%);stroke-opacity:1;stroke-miterlimit:10;" d="M 143.40625 89.167969 L 115.714844 85.015625 "/>
<path style="fill:none;stroke-width:1.2;stroke-linecap:butt;stroke-linejoin:miter;stroke:rgb(0%,0%,0%);stroke-opacity:1;stroke-miterlimit:10;" d="M 195.519531 119.308594 L 208.332031 151.882812 "/>
<path style="fill:none;stroke-width:1.2;stroke-linecap:butt;stroke-linejoin:miter;stroke:rgb(0%,0%,0%);stroke-opacity:1;stroke-miterlimit:10;" d="M 204.464844 119.550781 L 214.714844 145.609375 "/>
<path style="fill:none;stroke-width:1.2;stroke-linecap:butt;stroke-linejoin:miter;stroke:rgb(0%,0%,0%);stroke-opacity:1;stroke-miterlimit:10;" d="M 217.320312 91.925781 L 195.519531 119.308594 "/>
<path style="fill:none;stroke-width:1.2;stroke-linecap:butt;stroke-linejoin:miter;stroke:rgb(0%,0%,0%);stroke-opacity:1;stroke-miterlimit:10;" d="M 208.332031 151.882812 L 242.945312 157.074219 "/>
<path style="fill:none;stroke-width:1.2;stroke-linecap:butt;stroke-linejoin:miter;stroke:rgb(0%,0%,0%);stroke-opacity:1;stroke-miterlimit:10;" d="M 242.945312 157.074219 L 264.75 129.691406 "/>
<path style="fill:none;stroke-width:1.2;stroke-linecap:butt;stroke-linejoin:miter;stroke:rgb(0%,0%,0%);stroke-opacity:1;stroke-miterlimit:10;" d="M 238.683594 149.207031 L 256.125 127.300781 "/>
<path style="fill:none;stroke-width:1.2;stroke-linecap:butt;stroke-linejoin:miter;stroke:rgb(0%,0%,0%);stroke-opacity:1;stroke-miterlimit:10;" d="M 242.945312 157.074219 L 249.351562 173.359375 "/>
<path style="fill:none;stroke-width:1.2;stroke-linecap:butt;stroke-linejoin:miter;stroke:rgb(100%,0%,0%);stroke-opacity:1;stroke-miterlimit:10;" d="M 249.351562 173.359375 L 255.757812 189.648438 "/>
<path style="fill:none;stroke-width:1.2;stroke-linecap:butt;stroke-linejoin:miter;stroke:rgb(0%,0%,0%);stroke-opacity:1;stroke-miterlimit:10;" d="M 264.75 129.691406 L 251.9375 97.117188 "/>
<path style="fill:none;stroke-width:1.2;stroke-linecap:butt;stroke-linejoin:miter;stroke:rgb(0%,0%,0%);stroke-opacity:1;stroke-miterlimit:10;" d="M 251.9375 97.117188 L 217.320312 91.925781 "/>
<path style="fill:none;stroke-width:1.2;stroke-linecap:butt;stroke-linejoin:miter;stroke:rgb(0%,0%,0%);stroke-opacity:1;stroke-miterlimit:10;" d="M 247.253906 104.742188 L 219.5625 100.589844 "/>
<path style="fill:none;stroke-width:1.2;stroke-linecap:butt;stroke-linejoin:miter;stroke:rgb(100%,0%,0%);stroke-opacity:1;stroke-miterlimit:10;" d="M 255.757812 189.648438 L 244.855469 203.339844 "/>
<path style="fill:none;stroke-width:1.2;stroke-linecap:butt;stroke-linejoin:miter;stroke:rgb(0%,0%,0%);stroke-opacity:1;stroke-miterlimit:10;" d="M 244.855469 203.339844 L 233.953125 217.03125 "/>
<path style=" stroke:none;fill-rule:nonzero;fill:rgb(100%,100%,100%);fill-opacity:1;" d="M 250.757812 181.648438 L 261.757812 181.648438 L 261.757812 197.648438 L 250.757812 197.648438 Z M 250.757812 181.648438 "/>
<g style="fill:rgb(100%,0%,0%);fill-opacity:1;">
  <use xlink:href="#glyph0-2" x="250.757812" y="194.024414"/>
</g>
</g>
</svg>

<svg xmlns="http://www.w3.org/2000/svg" xmlns:xlink="http://www.w3.org/1999/xlink" width="300pt" height="300pt" viewBox="0 0 300 300"><defs><symbol overflow="visible"><path d="M.64 2.297v-11.47h6.5v11.47zm.735-.72h5.047V-8.436H1.375zm0 0"/></symbol><symbol overflow="visible" id="a"><path d="M1.28-9.484H3l4.203 7.937v-7.937h1.25V0H6.72L2.515-7.922V0H1.28zm0 0"/></symbol><symbol overflow="visible" id="b"><path d="M5.125-8.61c-.938 0-1.684.352-2.234 1.047-.542.688-.812 1.633-.812 2.83 0 1.198.27 2.147.813 2.842.55.687 1.297 1.03 2.235 1.03.926 0 1.66-.343 2.203-1.03.55-.696.828-1.645.828-2.844 0-1.196-.277-2.14-.828-2.829-.543-.695-1.277-1.046-2.203-1.046zm0-1.046c1.32 0 2.38.45 3.172 1.344.8.898 1.203 2.09 1.203 3.578 0 1.5-.402 2.7-1.203 3.593C7.504-.255 6.445.186 5.125.186c-1.336 0-2.402-.44-3.203-1.328C1.13-2.036.734-3.235.734-4.735c0-1.49.395-2.68 1.188-3.579.8-.894 1.867-1.343 3.203-1.343zm0 0"/></symbol></defs><g><path fill="#fff" d="M0 0h300v300H0z"/><path d="M73.688 223.648l10.902-13.69" stroke-width="1.2" stroke="#000" stroke-miterlimit="10" fill="none"/><path d="M84.59 209.957l10.902-13.69M95.492 196.266l17.305 2.593" stroke-width="1.2" stroke="#00f" stroke-miterlimit="10" fill="none"/><path d="M112.797 198.86l17.308 2.597" stroke-width="1.2" stroke="#000" stroke-miterlimit="10" fill="none"/><path d="M95.492 196.266l-6.406-16.29" stroke-width="1.2" stroke="#00f" stroke-miterlimit="10" fill="none"/><path d="M89.086 179.977L82.68 163.69" stroke-width="1.2" stroke="#000" stroke-miterlimit="10" fill="none"/><path d="M90.492 188.266h10v16h-10zm0 0" fill="#fff"/><use xlink:href="#a" x="90.492" y="200.642" fill="#00f"/><path d="M82.68 163.69L65.37 161.1" stroke-width="1.2" stroke="#000" stroke-miterlimit="10" fill="none"/><path d="M65.37 161.098L48.063 158.5" stroke-width="1.2" stroke="#00f" stroke-miterlimit="10" fill="none"/><path d="M80.438 155.027L66.59 152.95" stroke-width="1.2" stroke="#000" stroke-miterlimit="10" fill="none"/><path d="M66.59 152.95l-13.844-2.075" stroke-width="1.2" stroke="#00f" stroke-miterlimit="10" fill="none"/><path d="M104.48 136.31l-21.8 27.38" stroke-width="1.2" stroke="#000" stroke-miterlimit="10" fill="none"/><path d="M48.063 158.5l-6.407-16.285" stroke-width="1.2" stroke="#00f" stroke-miterlimit="10" fill="none"/><path d="M41.656 142.215l-6.406-16.29" stroke-width="1.2" stroke="#000" stroke-miterlimit="10" fill="none"/><path d="M43.063 150.5h10v16h-10zm0 0" fill="#fff"/><use xlink:href="#a" x="43.063" y="162.876" fill="#00f"/><path d="M35.25 125.926l10.902-13.692" stroke-width="1.2" stroke="#000" stroke-miterlimit="10" fill="none"/><path d="M46.152 112.234l10.903-13.69" stroke-width="1.2" stroke="#00f" stroke-miterlimit="10" fill="none"/><path d="M43.875 128.316l8.72-10.953" stroke-width="1.2" stroke="#000" stroke-miterlimit="10" fill="none"/><path d="M52.594 117.363l8.722-10.953M57.055 98.543l17.308 2.598" stroke-width="1.2" stroke="#00f" stroke-miterlimit="10" fill="none"/><path d="M74.363 101.14l17.305 2.594" stroke-width="1.2" stroke="#000" stroke-miterlimit="10" fill="none"/><path d="M52.055 90.543h10v16h-10zm0 0" fill="#fff"/><use xlink:href="#a" x="52.055" y="102.919" fill="#00f"/><path d="M91.668 103.734l12.812 32.575M100.617 103.977l10.25 26.058M113.473 76.352l-21.805 27.382M104.48 136.31l34.618 5.19M139.098 141.5l21.804-27.383M134.836 133.633l17.44-21.906M160.902 114.117L148.09 81.543M160.902 114.117l34.618 5.192M148.09 81.543l-34.617-5.19M143.406 89.168l-27.69-4.152M195.52 119.31l12.812 32.573M204.465 119.55l10.25 26.06M217.32 91.926l-21.8 27.383M208.332 151.883l34.613 5.19M242.945 157.074l21.805-27.383M238.684 149.207l17.44-21.906M242.945 157.074l6.407 16.285" stroke-width="1.2" stroke="#000" stroke-miterlimit="10" fill="none"/><path d="M249.352 173.36l6.406 16.288" stroke-width="1.2" stroke="#f00" stroke-miterlimit="10" fill="none"/><path d="M264.75 129.69l-12.813-32.573M251.938 97.117l-34.618-5.19M247.254 104.742l-27.69-4.152" stroke-width="1.2" stroke="#000" stroke-miterlimit="10" fill="none"/><path d="M255.758 189.648l-10.903 13.692" stroke-width="1.2" stroke="#f00" stroke-miterlimit="10" fill="none"/><path d="M244.855 203.34l-10.902 13.69" stroke-width="1.2" stroke="#000" stroke-miterlimit="10" fill="none"/><path d="M250.758 181.648h11v16h-11zm0 0" fill="#fff"/><use xlink:href="#b" x="250.758" y="194.024" fill="#f00"/></g></svg>
